skatepark/assets/svg/post-tag.svg

<svg fill="none" height="17" viewBox="0 0 17 17" width="17" xmlns="http://www.w3.org/2000/svg"><path clip-rule="evenodd" d="m1 .25c-.414214 0-.75.335786-.75.75v7.82613c0 .19903.079111.38989.219909.53057l6.720881 6.7148c.21485.215.46994.3856.7507.502.28103.1165.58227.1765.8865.1765s.60547-.06.8865-.1765c.2809-.1165.53641-.2875.75131-.5026l5.6096-5.611-.5304-.53029.5319.52869c.4312-.4338.6731-1.02059.6731-1.63217 0-.61159-.2419-1.19837-.6731-1.63217l-6.72242-6.724221c-.14066-.140694-.33145-.219739-.5304-.219739zm14.25 8.57613c0 .21514-.085.42151-.2364.57418l-5.6092 5.61069c-.07568.0758-.16554.1359-.26445.1769-.0989.041-.2049.0621-.31196.0621-.10705 0-.21306-.0211-.31196-.0621s-.18937-.1017-.26506-.1775l-6.50097-6.49513v-6.76527h6.76336l6.50034 6.502c.1513.15266.2363.35901.2363.57413zm-10.25-2.82613c.55228 0 1-.44772 1-1s-.44772-1-1-1-1 .44772-1 1 .44772 1 1 1z" fill="#000" fill-rule="evenodd"/></svg>

<svg width="17" height="17" viewBox="0 0 17 17" fill="none" xmlns="http://www.w3.org/2000/svg">
<path fill-rule="evenodd" clip-rule="evenodd" d="M1 0.25C0.585786 0.25 0.25 0.585786 0.25 1V8.82613C0.25 9.02516 0.329111 9.21602 0.469909 9.3567L7.19079 16.0715C7.40564 16.2865 7.66073 16.4571 7.94149 16.5735C8.22252 16.69 8.52376 16.75 8.82799 16.75C9.13222 16.75 9.43346 16.69 9.71449 16.5735C9.99539 16.457 10.2509 16.286 10.4658 16.0709L16.0754 10.4599L15.545 9.92961L16.0769 10.4583C16.5081 10.0245 16.75 9.43771 16.75 8.82613C16.75 8.21454 16.5081 7.62776 16.0769 7.19396L9.35448 0.469739C9.21382 0.329045 9.02303 0.25 8.82408 0.25H1ZM15.25 8.82613C15.25 9.04127 15.165 9.24764 15.0136 9.40031L9.4044 15.011C9.32872 15.0868 9.23886 15.1469 9.13995 15.1879C9.04105 15.2289 8.93505 15.25 8.82799 15.25C8.72094 15.25 8.61493 15.2289 8.51603 15.1879C8.41713 15.1469 8.32666 15.0862 8.25097 15.0104L1.75 8.51527V1.75H8.51336L15.0137 8.252C15.165 8.40466 15.25 8.61101 15.25 8.82613ZM5 6C5.55228 6 6 5.55228 6 5C6 4.44772 5.55228 4 5 4C4.44772 4 4 4.44772 4 5C4 5.55228 4.44772 6 5 6Z" fill="black"/>
</svg>
